austria/municipalities/41102.svg

<?xml version="1.0" encoding="UTF-8"?>
<!DOCTYPE svg PUBLIC "-//W3C//DTD SVG 1.1//EN" "http://www.w3.org/Graphics/SVG/1.1/DTD/svg11.dtd">
<svg xmlns="http://www.w3.org/2000/svg" version="1.1" width="100px" height="121px" style="shape-rendering:geometricPrecision; text-rendering:geometricPrecision; image-rendering:optimizeQuality; fill-rule:evenodd; clip-rule:evenodd" xmlns:xlink="http://www.w3.org/1999/xlink">
<g><path style="opacity:1" fill="#bbc2ca" d="M -0.5,-0.5 C 32.8333,-0.5 66.1667,-0.5 99.5,-0.5C 99.5,24.1667 99.5,48.8333 99.5,73.5C 99.1667,73.5 98.8333,73.5 98.5,73.5C 98.5,49.1667 98.5,24.8333 98.5,0.5C 65.8333,0.5 33.1667,0.5 0.5,0.5C 0.5,25.8333 0.5,51.1667 0.5,76.5C 0.166667,76.5 -0.166667,76.5 -0.5,76.5C -0.5,50.8333 -0.5,25.1667 -0.5,-0.5 Z"/></g>
<g><path style="opacity:1" fill="#f7f7f7" d="M 98.5,73.5 C 98.8333,73.5 99.1667,73.5 99.5,73.5C 99.5,89.1667 99.5,104.833 99.5,120.5C 66.1667,120.5 32.8333,120.5 -0.5,120.5C -0.5,105.833 -0.5,91.1667 -0.5,76.5C -0.166667,76.5 0.166667,76.5 0.5,76.5C 5.23695,103.737 21.4036,118.071 49,119.5C 71.7261,119.297 87.3928,108.63 96,87.5C 97.4749,82.9367 98.3083,78.2701 98.5,73.5 Z"/></g>
<g><path style="opacity:1" fill="#141712" d="M 98.5,73.5 C 98.3083,78.2701 97.4749,82.9367 96,87.5C 87.3928,108.63 71.7261,119.297 49,119.5C 21.4036,118.071 5.23695,103.737 0.5,76.5C 0.5,51.1667 0.5,25.8333 0.5,0.5C 33.1667,0.5 65.8333,0.5 98.5,0.5C 98.5,24.8333 98.5,49.1667 98.5,73.5 Z"/></g>
<g><path style="opacity:1" fill="#f2c903" d="M 55.5,117.5 C 54.8333,112.833 54.1667,108.167 53.5,103.5C 51.1667,103.5 48.8333,103.5 46.5,103.5C 45.5139,107.97 45.1805,112.637 45.5,117.5C 44.1667,117.5 42.8333,117.5 41.5,117.5C 38.3992,117.308 35.3992,116.642 32.5,115.5C 31.5021,107.193 31.1688,98.8599 31.5,90.5C 43.5,90.5 55.5,90.5 67.5,90.5C 67.5,98.8333 67.5,107.167 67.5,115.5C 63.5,116.167 59.5,116.833 55.5,117.5 Z"/></g>
<g><path style="opacity:1" fill="#0b7844" d="M 67.5,15.5 C 66.8333,18.1667 66.1667,18.1667 65.5,15.5C 64.3933,13.0311 62.3933,12.0311 59.5,12.5C 59.5,13.5 59.5,14.5 59.5,15.5C 56.0365,14.0899 52.7031,14.4233 49.5,16.5C 45.5519,15.3504 41.7186,14.0171 38,12.5C 35.9534,13.6094 33.7867,14.2761 31.5,14.5C 30.8166,12.8235 29.4832,12.1568 27.5,12.5C 26.6245,23.1398 26.2912,33.8064 26.5,44.5C 27.5,44.5 28.5,44.5 29.5,44.5C 29.5,58.8333 29.5,73.1667 29.5,87.5C 42.8375,87.3334 56.1708,87.5001 69.5,88C 55.8212,88.1673 42.1545,88.6673 28.5,89.5C 29.6362,97.7845 29.8029,106.118 29,114.5C 14.3003,106.797 5.30027,94.7971 2,78.5C 1.50003,53.1689 1.33336,27.8355 1.5,2.5C 33.1667,2.5 64.8333,2.5 96.5,2.5C 96.6666,28.1688 96.5,53.8355 96,79.5C 93.0742,95.0198 84.5742,106.353 70.5,113.5C 69.8076,112.975 69.3076,112.308 69,111.5C 67.9745,103.696 68.4745,96.0293 70.5,88.5C 69.5317,73.5293 69.1984,58.5293 69.5,43.5C 70.5,43.5 71.5,43.5 72.5,43.5C 72.5,33.5 72.5,23.5 72.5,13.5C 70.302,13.1201 68.6354,13.7868 67.5,15.5 Z"/></g>
<g><path style="opacity:1" fill="#e8c40e" d="M 61.5,33.5 C 64.8333,33.5 68.1667,33.5 71.5,33.5C 71.5,36.5 71.5,39.5 71.5,42.5C 68.1667,42.5 64.8333,42.5 61.5,42.5C 61.5,39.5 61.5,36.5 61.5,33.5 Z"/></g>
<g><path style="opacity:1" fill="#efc606" d="M 41.5,16.5 C 44.9079,15.828 47.5745,16.828 49.5,19.5C 51.8479,16.3818 54.8479,15.7151 58.5,17.5C 59.498,26.1411 59.8314,34.8078 59.5,43.5C 62.1667,43.5 64.8333,43.5 67.5,43.5C 67.5,57.8333 67.5,72.1667 67.5,86.5C 55.5,86.5 43.5,86.5 31.5,86.5C 31.5,72.1667 31.5,57.8333 31.5,43.5C 34.1667,43.5 36.8333,43.5 39.5,43.5C 39.3336,35.16 39.5003,26.8267 40,18.5C 40.7172,17.9558 41.2172,17.2891 41.5,16.5 Z"/></g>
<g><path style="opacity:1" fill="#040102" d="M 46.5,62.5 C 48.8333,62.5 51.1667,62.5 53.5,62.5C 53.5,65.5 53.5,68.5 53.5,71.5C 51.1667,71.5 48.8333,71.5 46.5,71.5C 46.5,68.5 46.5,65.5 46.5,62.5 Z"/></g>
<g><path style="opacity:1" fill="#eacc0e" d="M 28.5,34.5 C 31.8333,34.5 35.1667,34.5 38.5,34.5C 38.5,37.1667 38.5,39.8333 38.5,42.5C 35.1667,42.5 31.8333,42.5 28.5,42.5C 28.5,39.8333 28.5,37.1667 28.5,34.5 Z"/></g>
<g><path style="opacity:1" fill="#e6c60f" d="M 61.5,23.5 C 64.8333,23.5 68.1667,23.5 71.5,23.5C 71.5,26.1667 71.5,28.8333 71.5,31.5C 68.1667,31.5 64.8333,31.5 61.5,31.5C 61.5,28.8333 61.5,26.1667 61.5,23.5 Z"/></g>
<g><path style="opacity:1" fill="#0e0105" d="M 64.5,25.5 C 65.5,25.5 66.5,25.5 67.5,25.5C 67.5,26.8333 67.5,28.1667 67.5,29.5C 66.5,29.5 65.5,29.5 64.5,29.5C 64.5,28.1667 64.5,26.8333 64.5,25.5 Z"/></g>
<g><path style="opacity:1" fill="#e8c70c" d="M 28.5,23.5 C 31.8333,23.5 35.1667,23.5 38.5,23.5C 38.5,26.5 38.5,29.5 38.5,32.5C 35.1667,32.5 31.8333,32.5 28.5,32.5C 28.5,29.5 28.5,26.5 28.5,23.5 Z"/></g>
<g><path style="opacity:1" fill="#0a030b" d="M 31.5,25.5 C 32.5,25.5 33.5,25.5 34.5,25.5C 34.5,26.8333 34.5,28.1667 34.5,29.5C 33.5,29.5 32.5,29.5 31.5,29.5C 31.5,28.1667 31.5,26.8333 31.5,25.5 Z"/></g>
<g><path style="opacity:1" fill="#271e12" d="M 51.5,31.5 C 52.4731,29.0521 52.8064,26.3854 52.5,23.5C 50.5,23.5 48.5,23.5 46.5,23.5C 46.1936,26.3854 46.5269,29.0521 47.5,31.5C 47.1788,33.0481 46.1788,33.7148 44.5,33.5C 44.3347,29.8183 44.5014,26.1516 45,22.5C 48.0567,21.5495 51.2234,21.2161 54.5,21.5C 54.665,24.8499 54.4983,28.1832 54,31.5C 53.0228,32.7736 52.1894,32.7736 51.5,31.5 Z"/></g>
<g><path style="opacity:1" fill="#cbb716" d="M 51.5,31.5 C 51.38,30.4138 50.7133,29.7472 49.5,29.5C 48.2867,29.7472 47.62,30.4138 47.5,31.5C 46.5269,29.0521 46.1936,26.3854 46.5,23.5C 48.5,23.5 50.5,23.5 52.5,23.5C 52.8064,26.3854 52.4731,29.0521 51.5,31.5 Z"/></g>
<g><path style="opacity:1" fill="#382d19" d="M 51.5,31.5 C 50.1667,31.5 48.8333,31.5 47.5,31.5C 47.62,30.4138 48.2867,29.7472 49.5,29.5C 50.7133,29.7472 51.38,30.4138 51.5,31.5 Z"/></g>
<g><path style="opacity:1" fill="#120c11" d="M 48.5,25.5 C 49.5,25.5 50.5,25.5 51.5,25.5C 51.5,26.5 51.5,27.5 51.5,28.5C 50.5,28.5 49.5,28.5 48.5,28.5C 48.5,27.5 48.5,26.5 48.5,25.5 Z"/></g>
<g><path style="opacity:1" fill="#e7c313" d="M 65.5,15.5 C 66.1667,18.1667 66.8333,18.1667 67.5,15.5C 68.5832,15.4606 69.5832,15.1272 70.5,14.5C 71.48,17.0865 71.8134,19.7531 71.5,22.5C 68.1667,22.5 64.8333,22.5 61.5,22.5C 61.5,19.8333 61.5,17.1667 61.5,14.5C 62.9587,14.4326 64.2921,14.7659 65.5,15.5 Z"/></g>
<g><path style="opacity:1" fill="#e8c719" d="M 31.5,14.5 C 32.1187,17.5954 33.1187,17.9288 34.5,15.5C 35.7362,14.7542 37.0695,14.4208 38.5,14.5C 38.5,17.1667 38.5,19.8333 38.5,22.5C 35.1667,22.5 31.8333,22.5 28.5,22.5C 28.5,19.8333 28.5,17.1667 28.5,14.5C 29.5,14.5 30.5,14.5 31.5,14.5 Z"/></g>
<g><path style="opacity:1" fill="#7e6f1f" d="M 46.5,103.5 C 46.5,108.5 46.5,113.5 46.5,118.5C 44.5853,118.784 42.9187,118.451 41.5,117.5C 42.8333,117.5 44.1667,117.5 45.5,117.5C 45.1805,112.637 45.5139,107.97 46.5,103.5 Z"/></g>
<g><path style="opacity:1" fill="#7d6712" d="M 53.5,103.5 C 54.1667,108.167 54.8333,112.833 55.5,117.5C 55.44,118.043 55.1067,118.376 54.5,118.5C 53.5059,113.544 53.1725,108.544 53.5,103.5 Z"/></g>
</svg>

<svg xmlns="http://www.w3.org/2000/svg" width="100" height="121" style="shape-rendering:geometricPrecision;text-rendering:geometricPrecision;image-rendering:optimizeQuality;fill-rule:evenodd;clip-rule:evenodd"><path style="opacity:1" fill="#bbc2ca" d="M-.5-.5h100v74h-1V.5H.5v76h-1v-77z"/><path style="opacity:1" fill="#f7f7f7" d="M98.5 73.5h1v47H-.5v-44h1c4.737 27.237 20.904 41.571 48.5 43 22.726-.203 38.393-10.87 47-32a52.12 52.12 0 0 0 2.5-14z"/><path style="opacity:1" fill="#141712" d="M98.5 73.5a52.12 52.12 0 0 1-2.5 14c-8.607 21.13-24.274 31.797-47 32-27.596-1.429-43.763-15.763-48.5-43V.5h98v73z"/><path style="opacity:1" fill="#f2c903" d="m55.5 117.5-2-14h-7c-.986 4.47-1.32 9.137-1 14h-4c-3.1-.192-6.1-.858-9-2a157.124 157.124 0 0 1-1-25h36v25l-12 2z"/><path style="opacity:1" fill="#0b7844" d="M67.5 15.5c-.667 2.667-1.333 2.667-2 0-1.107-2.469-3.107-3.469-6-3v3c-3.464-1.41-6.797-1.077-10 1a117.038 117.038 0 0 1-11.5-4 16.985 16.985 0 0 1-6.5 2c-.683-1.677-2.017-2.343-4-2a314.973 314.973 0 0 0-1 32h3v43c13.337-.167 26.67 0 40 .5a842.79 842.79 0 0 0-41 1.5 107.758 107.758 0 0 1 .5 25c-14.7-7.703-23.7-19.703-27-36-.5-25.331-.667-50.665-.5-76h95c.167 25.669 0 51.336-.5 77-2.926 15.52-11.426 26.853-25.5 34a4.451 4.451 0 0 1-1.5-2c-1.025-7.804-.525-15.47 1.5-23a531.625 531.625 0 0 1-1-45h3v-30c-2.198-.38-3.865.287-5 2z"/><path style="opacity:1" fill="#e8c40e" d="M61.5 33.5h10v9h-10v-9z"/><path style="opacity:1" fill="#efc606" d="M41.5 16.5c3.408-.672 6.075.328 8 3 2.348-3.118 5.348-3.785 9-2a169.875 169.875 0 0 1 1 26h8v43h-36v-43h8c-.166-8.34 0-16.673.5-25 .717-.544 1.217-1.21 1.5-2z"/><path style="opacity:1" fill="#040102" d="M46.5 62.5h7v9h-7v-9z"/><path style="opacity:1" fill="#eacc0e" d="M28.5 34.5h10v8h-10v-8z"/><path style="opacity:1" fill="#e6c60f" d="M61.5 23.5h10v8h-10v-8z"/><path style="opacity:1" fill="#0e0105" d="M64.5 25.5h3v4h-3v-4z"/><path style="opacity:1" fill="#e8c70c" d="M28.5 23.5h10v9h-10v-9z"/><path style="opacity:1" fill="#0a030b" d="M31.5 25.5h3v4h-3v-4z"/><path style="opacity:1" fill="#271e12" d="M51.5 31.5c.973-2.448 1.306-5.115 1-8h-6c-.306 2.885.027 5.552 1 8-.321 1.548-1.321 2.215-3 2a60.94 60.94 0 0 1 .5-11c3.057-.95 6.223-1.284 9.5-1a50.441 50.441 0 0 1-.5 10c-.977 1.274-1.81 1.274-2.5 0z"/><path style="opacity:1" fill="#cbb716" d="M51.5 31.5c-.12-1.086-.787-1.753-2-2-1.213.247-1.88.914-2 2-.973-2.448-1.306-5.115-1-8h6c.306 2.885-.027 5.552-1 8z"/><path style="opacity:1" fill="#382d19" d="M51.5 31.5h-4c.12-1.086.787-1.753 2-2 1.213.247 1.88.914 2 2z"/><path style="opacity:1" fill="#120c11" d="M48.5 25.5h3v3h-3v-3z"/><path style="opacity:1" fill="#e7c313" d="M65.5 15.5c.667 2.667 1.333 2.667 2 0a5.576 5.576 0 0 0 3-1 16.869 16.869 0 0 1 1 8h-10v-8c1.459-.067 2.792.266 4 1z"/><path style="opacity:1" fill="#e8c719" d="M31.5 14.5c.619 3.095 1.619 3.429 3 1a6.845 6.845 0 0 1 4-1v8h-10v-8h3z"/><path style="opacity:1" fill="#7e6f1f" d="M46.5 103.5v15c-1.915.284-3.581-.049-5-1h4c-.32-4.863.014-9.53 1-14z"/><path style="opacity:1" fill="#7d6712" d="m53.5 103.5 2 14c-.06.543-.393.876-1 1a57.124 57.124 0 0 1-1-15z"/></svg>
